;FLAVOR:Marlin
;TIME:9156
;Filament used: 7.1283m
;Layer height: 0.2
;MINX:78.62
;MINY:49.227
;MINZ:0.2
;MAXX:156.38
;MAXY:185.773
;MAXZ:16.2
;TARGET_MACHINE.NAME:Creality Ender-3
;Generated with Cura_SteamEngine 5.5.0
M140 S50
M105
M190 S50
M104 S200
M105
M109 S200
M82 ;absolute extrusion mode
; Ender 3 Custom Start G-code
G92 E0 ; Reset Extruder
G28 ; Home all axes
G1 Z2.0 F3000 ; Move Z Axis up little to prevent scratching of Heat Bed
G1 X0.1 Y20 Z0.3 F5000.0 ; Move to start position
G1 X0.1 Y200.0 Z0.3 F1500.0 E15 ; Draw the first line
G1 X0.4 Y200.0 Z0.3 F5000.0 ; Move to side a little
G1 X0.4 Y20 Z0.3 F1500.0 E30 ; Draw the second line
G92 E0 ; Reset Extruder
G1 Z2.0 F3000 ; Move Z Axis up little to prevent scratching of Heat Bed
G1 X5 Y20 Z0.3 F5000.0 ; Move over to prevent blob squish
G92 E0
G92 E0
G1 F2700 E-5
;LAYER_COUNT:81
;LAYER:0
M107
G0 F6000 X80.241 Y54.504 Z0.2
;TYPE:SKIRT
G1 F2700 E0
G1 F1200 X80.784 Y53.696 E0.03238
G1 X81.351 Y52.992 E0.06244
G1 X82.076 Y52.24 E0.09719
G1 X82.812 Y51.603 E0.12956
G1 X83.544 Y51.073 E0.15962
G1 X84.441 Y50.538 E0.19436
G1 X85.319 Y50.117 E0.22674
G1 X86.232 Y49.775 E0.25917
G1 X87.169 Y49.516 E0.2915
G1 X88.136 Y49.338 E0.32421
G1 X89.275 Y49.242 E0.36222
G1 X89.932 Y49.227 E0.38408
G1 X144.684 Y49.227 E2.20514
G1 X145.564 Y49.24 E2.23441
G1 X146.536 Y49.299 E2.2668
G1 X147.499 Y49.445 E2.2992
G1 X148.446 Y49.676 E2.33162
G1 X149.334 Y49.976 E2.36279
G1 X150.226 Y50.366 E2.39517
G1 X151.109 Y50.853 E2.42871
G1 X151.86 Y51.355 E2.45876
G1 X152.675 Y52.013 E2.4936
G1 X153.373 Y52.691 E2.52596
G1 X154.009 Y53.428 E2.55834
G1 X154.579 Y54.218 E2.59074
G1 X155.041 Y54.994 E2.62078
G1 X155.495 Y55.936 E2.65556
G1 X155.824 Y56.814 E2.68674
G1 X156.093 Y57.786 E2.72029
G1 X156.27 Y58.752 E2.75295
G1 X156.365 Y59.882 E2.79067
G1 X156.38 Y60.557 E2.81312
G1 X156.379 Y174.173 E6.59201
G1 X156.368 Y174.936 E6.61739
G1 X156.311 Y175.909 E6.6498
G1 X156.166 Y176.872 E6.6822
G1 X155.937 Y177.818 E6.71457
G1 X155.626 Y178.742 E6.74699
G1 X155.234 Y179.633 E6.77937
G1 X154.766 Y180.485 E6.8117
G1 X154.244 Y181.266 E6.84295
G1 X153.611 Y182.051 E6.87649
G1 X152.986 Y182.702 E6.9065
G1 X152.197 Y183.39 E6.94132
G1 X151.437 Y183.94 E6.97252
G1 X150.57 Y184.457 E7.0061
G1 X149.692 Y184.879 E7.0385
G1 X148.781 Y185.221 E7.07086
G1 X147.842 Y185.482 E7.10328
G1 X146.876 Y185.66 E7.13595
G1 X145.725 Y185.758 E7.17437
G1 X145.05 Y185.773 E7.19682
G1 X90.184 Y185.772 E9.02167
G1 X89.451 Y185.761 E9.04606
G1 X88.479 Y185.704 E9.07844
G1 X87.516 Y185.558 E9.11084
G1 X86.57 Y185.329 E9.14321
G1 X85.646 Y185.017 E9.17565
G1 X84.756 Y184.625 E9.20799
G1 X83.933 Y184.174 E9.23921
G1 X83.094 Y183.613 E9.27278
G1 X82.39 Y183.047 E9.30282
G1 X81.637 Y182.322 E9.33759
G1 X81 Y181.586 E9.36996
G1 X80.47 Y180.855 E9.39999
G1 X79.934 Y179.958 E9.43475
G1 X79.512 Y179.08 E9.46715
G1 X79.17 Y178.168 E9.49954
G1 X78.91 Y177.23 E9.53192
G1 X78.732 Y176.261 E9.56469
G1 X78.634 Y175.082 E9.60403
G1 X78.62 Y174.431 E9.62569
G1 X78.621 Y60.752 E13.40667
G1 X78.632 Y60.052 E13.42996
G1 X78.69 Y59.079 E13.46238
G1 X78.836 Y58.116 E13.49477
G1 X79.066 Y57.17 E13.52715
G1 X79.379 Y56.247 E13.55957
G1 X79.771 Y55.357 E13.59191
G1 X80.241 Y54.504 E13.62431
G0 F6000 X81.096 Y53.947
G1 F1200 X81.663 Y53.243 E13.65437
G1 X82.338 Y52.542 E13.68674
G1 X83.047 Y51.927 E13.71795
G1 X83.779 Y51.397 E13.74801
G1 X84.615 Y50.898 E13.7804
G1 X85.46 Y50.491 E13.81159
G1 X86.339 Y50.16 E13.84283
G1 X87.242 Y49.909 E13.874
G1 X88.17 Y49.737 E13.90539
G1 X89.309 Y49.641 E13.94341
G1 X89.941 Y49.627 E13.96444
G1 X144.678 Y49.627 E15.785
G1 X145.54 Y49.639 E15.81367
G1 X146.477 Y49.695 E15.84489
G1 X147.405 Y49.834 E15.8761
G1 X148.318 Y50.055 E15.90734
G1 X149.174 Y50.343 E15.93738
G1 X150.066 Y50.733 E15.96976
G1 X150.887 Y51.186 E16.00095
G1 X151.638 Y51.688 E16.03099
G1 X152.397 Y52.3 E16.06342
G1 X153.071 Y52.953 E16.09464
G1 X153.685 Y53.662 E16.12583
G1 X154.235 Y54.423 E16.15706
G1 X154.697 Y55.199 E16.1871
G1 X155.12 Y56.076 E16.21948
G1 X155.449 Y56.954 E16.25067
G1 X155.7 Y57.859 E16.2819
G1 X155.871 Y58.786 E16.31326
G1 X155.966 Y59.916 E16.35097
G1 X155.98 Y60.557 E16.3723
G1 X155.979 Y174.168 E20.15102
G1 X155.969 Y174.913 E20.1758
G1 X155.915 Y175.85 E20.20701
G1 X155.777 Y176.779 E20.23825
G1 X155.558 Y177.691 E20.26945
G1 X155.26 Y178.581 E20.30066
G1 X154.883 Y179.441 E20.33189
G1 X154.433 Y180.263 E20.36306
G1 X153.911 Y181.044 E20.39431
G1 X153.322 Y181.774 E20.42551
G1 X152.697 Y182.425 E20.45552
G1 X151.962 Y183.066 E20.48796
G1 X151.202 Y183.616 E20.51916
G1 X150.396 Y184.097 E20.55038
G1 X149.551 Y184.505 E20.58159
G1 X148.673 Y184.836 E20.6128
G1 X147.769 Y185.089 E20.64402
G1 X146.842 Y185.261 E20.67538
G1 X145.691 Y185.359 E20.7138
G1 X145.05 Y185.373 E20.73512
G1 X90.19 Y185.372 E22.55977
G1 X89.474 Y185.362 E22.58359
G1 X88.538 Y185.308 E22.61477
G1 X87.609 Y185.169 E22.64602
G1 X86.697 Y184.95 E22.67721
G1 X85.807 Y184.651 E22.70844
G1 X84.948 Y184.274 E22.73964
G1 X84.125 Y183.823 E22.77085
G1 X83.345 Y183.301 E22.80207
G1 X82.641 Y182.735 E22.83212
G1 X81.939 Y182.06 E22.86451
G1 X81.324 Y181.351 E22.89572
G1 X80.794 Y180.62 E22.92575
G1 X80.294 Y179.784 E22.95815
G1 X79.886 Y178.939 E22.98936
G1 X79.555 Y178.061 E23.02057
G1 X79.303 Y177.157 E23.05179
G1 X79.131 Y176.228 E23.08321
G1 X79.033 Y175.049 E23.12256
G1 X79.02 Y174.431 E23.14312
G1 X79.021 Y60.758 E26.9239
G1 X79.031 Y60.075 E26.94662
G1 X79.086 Y59.138 E26.97783
G1 X79.225 Y58.21 E27.00904
G1 X79.445 Y57.298 E27.04025
G1 X79.745 Y56.408 E27.07148
G1 X80.122 Y55.549 E27.10269
G1 X80.573 Y54.727 E27.13387
G1 X81.096 Y53.947 E27.16511
G0 F6000 X81.408 Y54.198
G1 F1200 X81.975 Y53.494 E27.19517
G1 X82.601 Y52.844 E27.22519
G1 X83.282 Y52.251 E27.25522
G1 X84.014 Y51.721 E27.28528
G1 X84.789 Y51.258 E27.3153
G1 X85.602 Y50.865 E27.34534
G1 X86.447 Y50.545 E27.37539
G1 X87.316 Y50.302 E27.4054
G1 X88.204 Y50.136 E27.43545
G1 X89.343 Y50.04 E27.47347
G1 X89.95 Y50.027 E27.49366
G1 X144.673 Y50.027 E29.31375
G1 X145.517 Y50.038 E29.34183
G1 X146.419 Y50.091 E29.37188
G1 X147.312 Y50.223 E29.4019
G1 X148.19 Y50.434 E29.43194
G1 X149.046 Y50.722 E29.46198
G1 X149.873 Y51.084 E29.492
G1 X150.665 Y51.519 E29.52206
G1 X151.416 Y52.021 E29.5521
G1 X152.119 Y52.588 E29.58214
G1 X152.769 Y53.215 E29.61218
G1 X153.361 Y53.897 E29.64222
G1 X153.891 Y54.628 E29.67225
G1 X154.353 Y55.404 E29.70229
G1 X154.746 Y56.217 E29.73232
G1 X155.064 Y57.062 E29.76235
G1 X155.307 Y57.932 E29.79239
G1 X155.472 Y58.82 E29.82243
G1 X155.567 Y59.95 E29.86015
G1 X155.58 Y60.557 E29.88034
G1 X155.579 Y174.163 E33.65889
G1 X155.57 Y174.89 E33.68308
G1 X155.519 Y175.792 E33.71312
G1 X155.388 Y176.686 E33.74318
G1 X155.179 Y177.564 E33.77319
G1 X154.893 Y178.421 E33.80324
G1 X154.532 Y179.249 E33.83329
G1 X154.1 Y180.041 E33.86329
G1 X153.599 Y180.793 E33.89335
G1 X153.033 Y181.497 E33.92339
G1 X152.408 Y182.148 E33.95341
G1 X151.727 Y182.742 E33.98346
G1 X150.996 Y183.273 E34.01351
G1 X150.222 Y183.737 E34.04353
G1 X149.409 Y184.131 E34.07358
G1 X148.565 Y184.451 E34.1036
G1 X147.695 Y184.696 E34.13366
G1 X146.808 Y184.862 E34.16367
G1 X145.657 Y184.96 E34.2021
G1 X145.05 Y184.973 E34.22229
G1 X90.195 Y184.972 E36.04677
G1 X89.497 Y184.963 E36.06999
G1 X88.596 Y184.912 E36.10001
G1 X87.702 Y184.78 E36.13006
G1 X86.824 Y184.571 E36.16008
G1 X85.967 Y184.284 E36.19014
G1 X85.14 Y183.923 E36.22015
G1 X84.347 Y183.49 E36.2502
G1 X83.596 Y182.989 E36.28023
G1 X82.892 Y182.423 E36.31028
G1 X82.241 Y181.797 E36.34031
G1 X81.648 Y181.116 E36.37035
G1 X81.118 Y180.385 E36.40038
G1 X80.654 Y179.61 E36.43042
G1 X80.26 Y178.797 E36.46047
G1 X79.94 Y177.953 E36.49049
G1 X79.696 Y177.083 E36.52055
G1 X79.53 Y176.195 E36.55059
G1 X79.433 Y175.04 E36.58914
G1 X79.42 Y174.431 E36.6094
G1 X79.421 Y60.763 E40.39002
G1 X79.43 Y60.098 E40.41214
G1 X79.482 Y59.196 E40.44219
G1 X79.614 Y58.303 E40.47221
G1 X79.824 Y57.425 E40.50224
G1 X80.111 Y56.568 E40.5323
G1 X80.473 Y55.741 E40.56232
G1 X80.906 Y54.949 E40.59234
G1 X81.408 Y54.198 E40.62239
G1 F2700 E35.62239
;MESH:SC-FREYR-MGSE-700-0008-Front_Cap.stl
G0 F6000 X88.955 Y61.027
G0 X144.78 Y174.173
;TYPE:WALL-INNER
G1 F2700 E40.62239
G1 F1200 X144.78 Y60.827 E44.39229
G1 X90.22 Y60.827 E46.20697
G1 X90.22 Y174.173 E49.97687
G1 X144.78 Y174.173 E51.79154
G0 F6000 X145.18 Y174.573
;TYPE:WALL-OUTER
G1 F1200 X145.18 Y60.427 E55.58805
G1 X89.82 Y60.427 E57.42933
G1 X89.82 Y174.573 E61.22585
G1 X145.18 Y174.573 E63.06713
G0 F6000 X144.91 Y174.303
G0 X144.68 Y173.813
G0 X144.42 Y173.813
;TYPE:SKIN
G1 F1200 X90.58 Y173.813 E64.85785
G1 X90.58 Y61.187 E68.60381
G1 X144.42 Y61.187 E70.39453
G1 X144.42 Y173.813 E74.14049
G1 F2700 E69.14049
G0 F6000 X144.68 Y173.813
G0 X91.021 Y174.073
G0 X91.021 Y173.611
G1 F2700 E74.14049
G1 F1200 X90.779 Y173.369 E74.15187
G0 F6000 X90.779 Y172.804
G1 F1200 X91.587 Y173.611 E74.18986
G0 F6000 X92.152 Y173.611
G1 F1200 X90.779 Y172.238 E74.25444
G0 F6000 X90.779 Y171.672
G1 F1200 X92.718 Y173.611 E74.34564
G0 F6000 X93.284 Y173.611
G1 F1200 X90.779 Y171.107 E74.46345
G0 F6000 X90.779 Y170.541
G1 F1200 X93.85 Y173.611 E74.60787
G0 F6000 X94.415 Y173.611
G1 F1200 X90.779 Y169.975 E74.7789
G0 F6000 X90.779 Y169.41
G1 F1200 X94.981 Y173.611 E74.97652
G0 F6000 X95.547 Y173.611
G1 F1200 X90.779 Y168.844 E75.20077
G0 F6000 X90.779 Y168.278
G1 F1200 X96.112 Y173.611 E75.45162
G0 F6000 X96.678 Y173.611
G1 F1200 X90.779 Y167.713 E75.72907
G0 F6000 X90.779 Y167.147
G1 F1200 X97.244 Y173.611 E76.03314
G0 F6000 X97.809 Y173.611
G1 F1200 X90.779 Y166.581 E76.36381
G0 F6000 X90.779 Y166.015
G1 F1200 X98.375 Y173.611 E76.7211
G0 F6000 X98.941 Y173.611
G1 F1200 X90.779 Y165.45 E77.10499
G0 F6000 X90.779 Y164.884
G1 F1200 X99.506 Y173.611 E77.51548
G0 F6000 X100.072 Y173.611
G1 F1200 X90.779 Y164.318 E77.9526
G0 F6000 X90.779 Y163.753
G1 F1200 X100.638 Y173.611 E78.41631
G0 F6000 X101.203 Y173.611
G1 F1200 X90.779 Y163.187 E78.90662
G0 F6000 X90.779 Y162.621
G1 F1200 X101.769 Y173.611 E79.42356
G0 F6000 X102.335 Y173.611
G1 F1200 X90.779 Y162.056 E79.9671
G0 F6000 X90.779 Y161.49
G1 F1200 X102.901 Y173.611 E80.53725
G0 F6000 X103.466 Y173.611
G1 F1200 X90.779 Y160.924 E81.13401
G0 F6000 X90.779 Y160.359
G1 F1200 X104.032 Y173.611 E81.75737
G0 F6000 X104.598 Y173.611
G1 F1200 X90.779 Y159.793 E82.40735
G0 F6000 X90.779 Y159.227
G1 F1200 X105.163 Y173.611 E83.08393
G0 F6000 X105.729 Y173.611
G1 F1200 X90.779 Y158.662 E83.78711
G0 F6000 X90.779 Y158.096
G1 F1200 X106.295 Y173.611 E84.51691
G0 F6000 X106.86 Y173.611
G1 F1200 X90.779 Y157.53 E85.27331
G0 F6000 X90.779 Y156.964
G1 F1200 X107.426 Y173.611 E86.05633
G0 F6000 X107.992 Y173.611
G1 F1200 X90.779 Y156.399 E86.86596
G0 F6000 X90.779 Y155.833
G1 F1200 X108.557 Y173.611 E87.70218
G0 F6000 X109.123 Y173.611
G1 F1200 X90.779 Y155.267 E88.56502
G0 F6000 X90.779 Y154.702
G1 F1200 X109.689 Y173.611 E89.45447
G0 F6000 X110.254 Y173.611
G1 F1200 X90.779 Y154.136 E90.37051
G0 F6000 X90.779 Y153.57
G1 F1200 X110.82 Y173.611 E91.31318
G0 F6000 X111.386 Y173.611
G1 F1200 X90.779 Y153.005 E92.28245
G0 F6000 X90.779 Y152.439
G1 F1200 X111.951 Y173.611 E93.27831
G0 F6000 X112.517 Y173.611
G1 F1200 X90.779 Y151.873 E94.3008
G0 F6000 X90.779 Y151.308
G1 F1200 X113.083 Y173.611 E95.34989
G0 F6000 X113.649 Y173.611
G1 F1200 X90.779 Y150.742 E96.4256
G0 F6000 X90.779 Y150.176
G1 F1200 X114.214 Y173.611 E97.52791
G0 F6000 X114.78 Y173.611
G1 F1200 X90.779 Y149.611 E98.65682
G0 F6000 X90.779 Y149.045
G1 F1200 X115.346 Y173.611 E99.81235
G0 F6000 X115.911 Y173.611
G1 F1200 X90.779 Y148.479 E100.99449
G0 F6000 X90.779 Y147.914
G1 F1200 X116.477 Y173.611 E102.20322
G0 F6000 X117.043 Y173.611
G1 F1200 X90.779 Y147.348 E103.43857
G0 F6000 X90.779 Y146.782
G1 F1200 X117.608 Y173.611 E104.70053
G0 F6000 X118.174 Y173.611
G1 F1200 X90.779 Y146.216 E105.9891
G0 F6000 X90.779 Y145.651
G1 F1200 X118.74 Y173.611 E107.30428
G0 F6000 X119.305 Y173.611
G1 F1200 X90.779 Y145.085 E108.64606
G0 F6000 X90.779 Y144.519
G1 F1200 X119.871 Y173.611 E110.01445
G0 F6000 X120.437 Y173.611
G1 F1200 X90.779 Y143.954 E111.40945
G0 F6000 X90.779 Y143.388
G1 F1200 X121.002 Y173.611 E112.83105
G0 F6000 X121.568 Y173.611
G1 F1200 X90.779 Y142.822 E114.27927
G0 F6000 X90.779 Y142.257
G1 F1200 X122.134 Y173.611 E115.75409
G0 F6000 X122.699 Y173.611
G1 F1200 X90.779 Y141.691 E117.25551
G0 F6000 X90.779 Y141.125
G1 F1200 X123.265 Y173.611 E118.78355
G0 F6000 X123.831 Y173.611
G1 F1200 X90.779 Y140.56 E120.33819
G0 F6000 X90.779 Y139.994
G1 F1200 X124.397 Y173.611 E121.91945
G0 F6000 X124.962 Y173.611
G1 F1200 X90.779 Y139.428 E123.52732
G0 F6000 X90.779 Y138.863
G1 F1200 X125.528 Y173.611 E125.16178
G0 F6000 X126.094 Y173.611
G1 F1200 X90.779 Y138.297 E126.82287
G0 F6000 X90.779 Y137.731
G1 F1200 X126.659 Y173.611 E128.51055
G0 F6000 X127.225 Y173.611
G1 F1200 X90.779 Y137.165 E130.22486
G0 F6000 X90.779 Y136.6
G1 F1200 X127.791 Y173.611 E131.96577
G0 F6000 X128.356 Y173.611
G1 F1200 X90.779 Y136.034 E133.73327
G0 F6000 X90.779 Y135.468
G1 F1200 X128.922 Y173.611 E135.5274
G0 F6000 X129.488 Y173.611
G1 F1200 X90.779 Y134.903 E137.34813
G0 F6000 X90.779 Y134.337
G1 F1200 X130.053 Y173.611 E139.19546
G0 F6000 X130.619 Y173.611
G1 F1200 X90.779 Y133.771 E141.06941
G0 F6000 X90.779 Y133.206
G1 F1200 X131.185 Y173.611 E142.96996
G0 F6000 X131.75 Y173.611
G1 F1200 X90.779 Y132.64 E144.89711
G0 F6000 X90.779 Y132.074
G1 F1200 X132.316 Y173.611 E146.85089
G0 F6000 X132.882 Y173.611
G1 F1200 X90.779 Y131.509 E148.83126
G0 F6000 X90.779 Y130.943
G1 F1200 X133.448 Y173.611 E150.83826
G0 F6000 X134.013 Y173.611
G1 F1200 X90.779 Y130.377 E152.87185
G0 F6000 X90.779 Y129.812
G1 F1200 X134.579 Y173.611 E154.93204
G0 F6000 X135.145 Y173.611
G1 F1200 X90.779 Y129.246 E157.01886
G0 F6000 X90.779 Y128.68
G1 F1200 X135.71 Y173.611 E159.13228
G0 F6000 X136.276 Y173.611
G1 F1200 X90.779 Y128.115 E161.27229
G0 F6000 X90.779 Y127.549
G1 F1200 X136.842 Y173.611 E163.43893
G0 F6000 X137.407 Y173.611
G1 F1200 X90.779 Y126.983 E165.63217
G0 F6000 X90.779 Y126.417
G1 F1200 X137.973 Y173.611 E167.85203
G0 F6000 X138.539 Y173.611
G1 F1200 X90.779 Y125.852 E170.09849
G0 F6000 X90.779 Y125.286
G1 F1200 X139.104 Y173.611 E172.37155
G0 F6000 X139.67 Y173.611
G1 F1200 X90.779 Y124.72 E174.67124
G0 F6000 X90.779 Y124.155
G1 F1200 X140.236 Y173.611 E176.99752
G0 F6000 X140.801 Y173.611
G1 F1200 X90.779 Y123.589 E179.3504
G0 F6000 X90.779 Y123.023
G1 F1200 X141.367 Y173.611 E181.7299
G0 F6000 X141.933 Y173.611
G1 F1200 X90.779 Y122.458 E184.13601
G0 F6000 X90.779 Y121.892
G1 F1200 X142.498 Y173.611 E186.56871
G0 F6000 X143.064 Y173.611
G1 F1200 X90.779 Y121.326 E189.02804
G0 F6000 X90.779 Y120.761
G1 F1200 X143.63 Y173.611 E191.51396
G0 F6000 X144.196 Y173.611
G1 F1200 X90.779 Y120.195 E194.02651
G0 F6000 X90.779 Y119.629
G1 F1200 X144.22 Y173.07 E196.54021
G0 F6000 X144.22 Y172.504
G1 F1200 X90.779 Y119.064 E199.05389
G0 F6000 X90.779 Y118.498
G1 F1200 X144.22 Y171.938 E201.56757
G0 F6000 X144.22 Y171.372
G1 F1200 X90.779 Y117.932 E204.08124
G0 F6000 X90.779 Y117.366
G1 F1200 X144.22 Y170.807 E206.59494
G0 F6000 X144.22 Y170.241
G1 F1200 X90.779 Y116.8 E209.10864
G0 F6000 X90.779 Y116.234
G1 F1200 X144.22 Y169.675 E211.62235
G0 F6000 X144.22 Y169.11
G1 F1200 X90.779 Y115.669 E214.13605
G0 F6000 X90.779 Y115.103
G1 F1200 X144.22 Y168.544 E216.64975
G0 F6000 X144.22 Y167.978
G1 F1200 X90.779 Y114.537 E219.16345
G0 F6000 X90.779 Y113.972
G1 F1200 X144.22 Y167.413 E221.67715
G0 F6000 X144.22 Y166.847
G1 F1200 X90.779 Y113.406 E224.19085
G0 F6000 X90.779 Y112.84
G1 F1200 X144.22 Y166.281 E226.70455
G0 F6000 X144.22 Y165.716
G1 F1200 X90.779 Y112.275 E229.21825
G0 F6000 X90.779 Y111.709
G1 F1200 X144.22 Y165.15 E231.73195
G0 F6000 X144.22 Y164.584
G1 F1200 X90.779 Y111.143 E234.24565
G0 F6000 X90.779 Y110.578
G1 F1200 X144.22 Y164.019 E236.75935
G0 F6000 X144.22 Y163.453
G1 F1200 X90.779 Y110.012 E239.27305
G0 F6000 X90.779 Y109.446
G1 F1200 X144.22 Y162.887 E241.78675
G0 F6000 X144.22 Y162.322
G1 F1200 X90.779 Y108.881 E244.30046
G0 F6000 X90.779 Y108.315
