;FLAVOR:Marlin
;TIME:11715
;Filament used: 8.85639m
;Layer height: 0.2
;MINX:27.785
;MINY:68.318
;MINZ:0.2
;MAXX:178.235
;MAXY:204.863
;MAXZ:16.2
;TARGET_MACHINE.NAME:Creality Ender-3
;Generated with Cura_SteamEngine 5.5.0
M140 S50
M105
M190 S50
M104 S200
M105
M109 S200
M82 ;absolute extrusion mode
; Ender 3 Custom Start G-code
G92 E0 ; Reset Extruder
G28 ; Home all axes
G1 Z2.0 F3000 ; Move Z Axis up little to prevent scratching of Heat Bed
G1 X0.1 Y20 Z0.3 F5000.0 ; Move to start position
G1 X0.1 Y200.0 Z0.3 F1500.0 E15 ; Draw the first line
G1 X0.4 Y200.0 Z0.3 F5000.0 ; Move to side a little
G1 X0.4 Y20 Z0.3 F1500.0 E30 ; Draw the second line
G92 E0 ; Reset Extruder
G1 Z2.0 F3000 ; Move Z Axis up little to prevent scratching of Heat Bed
G1 X5 Y20 Z0.3 F5000.0 ; Move over to prevent blob squish
G92 E0
G92 E0
G1 F2700 E-5
;LAYER_COUNT:81
;LAYER:0
M107
G0 F6000 X33.606 Y69.629 Z0.2
;TYPE:SKIRT
G1 F2700 E0
G1 F1200 X34.484 Y69.208 E0.03239
G1 X35.397 Y68.866 E0.06481
G1 X36.334 Y68.607 E0.09715
G1 X37.301 Y68.429 E0.12985
G1 X38.44 Y68.333 E0.16787
G1 X39.097 Y68.318 E0.18972
G1 X93.849 Y68.318 E2.01078
G1 X94.734 Y68.331 E2.04022
G1 X95.705 Y68.39 E2.07258
G1 X96.669 Y68.536 E2.10501
G1 X97.616 Y68.767 E2.13743
G1 X98.472 Y69.055 E2.16747
G1 X99.428 Y69.473 E2.20217
G1 X100.279 Y69.943 E2.2345
G1 X101.03 Y70.445 E2.26455
G1 X101.835 Y71.094 E2.29894
G1 X102.26 Y71.49 E2.31826
G1 X102.928 Y72.148 E2.34945
G1 X104.873 Y74.01 E2.439
G1 X106.711 Y75.674 E2.52147
G1 X108.64 Y77.321 E2.60583
G1 X110.608 Y78.911 E2.68998
G1 X112.572 Y80.405 E2.77205
G1 X114.646 Y81.892 E2.85693
G1 X116.743 Y83.308 E2.94109
G1 X118.856 Y84.649 E3.02433
G1 X121.008 Y85.932 E3.10766
G1 X123.208 Y87.16 E3.19146
G1 X125.452 Y88.33 E3.27563
G1 X127.721 Y89.433 E3.35954
G1 X130.004 Y90.466 E3.44289
G1 X132.312 Y91.431 E3.52609
G1 X134.702 Y92.352 E3.61128
G1 X137.02 Y93.169 E3.69303
G1 X139.467 Y93.955 E3.77851
G1 X141.859 Y94.652 E3.86138
G1 X144.303 Y95.286 E3.94535
G1 X146.749 Y95.849 E4.02884
G1 X149.271 Y96.355 E4.11439
G1 X151.692 Y96.769 E4.19608
G1 X154.205 Y97.127 E4.28051
G1 X156.668 Y97.406 E4.36295
G1 X159.221 Y97.624 E4.44817
G1 X161.668 Y97.762 E4.52969
G1 X165.653 Y97.847 E4.66226
G1 X167.325 Y97.856 E4.71787
G1 X168.227 Y97.901 E4.74791
G1 X169.262 Y98.047 E4.78268
G1 X170.21 Y98.27 E4.81507
G1 X171.134 Y98.574 E4.84742
G1 X171.998 Y98.945 E4.8787
G1 X172.885 Y99.425 E4.91224
G1 X173.697 Y99.962 E4.94462
G1 X174.459 Y100.569 E4.97702
G1 X175.139 Y101.216 E5.00824
G1 X175.805 Y101.973 E5.04177
G1 X176.381 Y102.759 E5.07419
G1 X176.884 Y103.593 E5.10658
G1 X177.312 Y104.468 E5.13898
G1 X177.66 Y105.377 E5.17135
G1 X177.928 Y106.312 E5.2037
G1 X178.101 Y107.198 E5.23373
G1 X178.222 Y108.552 E5.27894
G1 X178.235 Y109.176 E5.2997
G1 X178.234 Y164.006 E7.12335
G1 X178.223 Y164.769 E7.14873
G1 X178.166 Y165.742 E7.18115
G1 X178.021 Y166.705 E7.21354
G1 X177.792 Y167.651 E7.24591
G1 X177.481 Y168.575 E7.27834
G1 X177.089 Y169.466 E7.31071
G1 X176.621 Y170.318 E7.34305
G1 X176.099 Y171.099 E7.37429
G1 X175.466 Y171.884 E7.40783
G1 X174.841 Y172.535 E7.43785
G1 X174.052 Y173.223 E7.47266
G1 X173.292 Y173.773 E7.50387
G1 X172.425 Y174.29 E7.53744
G1 X171.547 Y174.712 E7.56984
G1 X170.636 Y175.054 E7.60221
G1 X169.697 Y175.315 E7.63462
G1 X168.731 Y175.493 E7.66729
G1 X167.58 Y175.591 E7.70571
G1 X166.923 Y175.606 E7.72757
G1 X165.299 Y175.606 E7.78158
G1 X162.715 Y175.643 E7.86754
G1 X160.15 Y175.752 E7.95293
G1 X157.671 Y175.928 E8.03559
G1 X155.17 Y176.175 E8.11917
G1 X152.662 Y176.496 E8.20327
G1 X150.179 Y176.886 E8.28687
G1 X147.736 Y177.34 E8.36951
G1 X145.244 Y177.877 E8.4543
G1 X142.798 Y178.476 E8.53806
G1 X140.376 Y179.141 E8.6216
G1 X137.985 Y179.874 E8.70477
G1 X135.583 Y180.685 E8.7891
G1 X133.212 Y181.559 E8.87314
G1 X130.927 Y182.477 E8.95505
G1 X128.556 Y183.509 E9.04105
G1 X126.27 Y184.58 E9.12502
G1 X124.068 Y185.689 E9.20702
G1 X121.83 Y186.899 E9.29164
G1 X119.662 Y188.149 E9.37487
G1 X117.498 Y189.48 E9.45937
G1 X115.406 Y190.85 E9.54255
G1 X113.337 Y192.291 E9.62641
G1 X111.311 Y193.788 E9.71019
G1 X109.341 Y195.332 E9.79344
G1 X107.371 Y196.967 E9.87859
G1 X105.495 Y198.617 E9.96168
G1 X103.672 Y200.314 E10.04452
G1 X102.799 Y201.176 E10.08533
G1 X102.125 Y201.82 E10.11633
G1 X101.391 Y202.459 E10.1487
G1 X100.603 Y203.032 E10.18111
G1 X99.767 Y203.532 E10.21351
G1 X98.89 Y203.956 E10.24591
G1 X97.98 Y204.301 E10.27827
G1 X97.043 Y204.564 E10.31064
G1 X96.156 Y204.733 E10.34068
G1 X94.872 Y204.848 E10.38355
G1 X94.215 Y204.863 E10.40541
G1 X39.349 Y204.862 E12.23026
G1 X38.616 Y204.851 E12.25464
G1 X37.644 Y204.794 E12.28703
G1 X36.681 Y204.648 E12.31942
G1 X35.735 Y204.419 E12.3518
G1 X34.811 Y204.107 E12.38423
G1 X33.921 Y203.715 E12.41658
G1 X33.098 Y203.264 E12.44779
G1 X32.259 Y202.703 E12.48136
G1 X31.555 Y202.137 E12.51141
G1 X30.802 Y201.412 E12.54617
G1 X30.165 Y200.676 E12.57855
G1 X29.635 Y199.945 E12.60858
G1 X29.099 Y199.048 E12.64333
G1 X28.677 Y198.17 E12.67573
G1 X28.335 Y197.258 E12.70813
G1 X28.075 Y196.32 E12.7405
G1 X27.897 Y195.351 E12.77327
G1 X27.799 Y194.172 E12.81262
G1 X27.785 Y193.521 E12.83428
G1 X27.786 Y79.843 E16.61522
G1 X27.797 Y79.143 E16.63851
G1 X27.855 Y78.17 E16.67093
G1 X28.001 Y77.207 E16.70332
G1 X28.231 Y76.261 E16.7357
G1 X28.544 Y75.338 E16.76812
G1 X28.936 Y74.448 E16.80047
G1 X29.406 Y73.595 E16.83286
G1 X29.949 Y72.787 E16.86524
G1 X30.516 Y72.083 E16.8953
G1 X31.241 Y71.331 E16.93005
G1 X31.977 Y70.694 E16.96242
G1 X32.709 Y70.164 E16.99248
G1 X33.606 Y69.629 E17.02722
G0 F6000 X33.78 Y69.989
G1 F1200 X34.625 Y69.582 E17.05841
G1 X35.504 Y69.251 E17.08965
G1 X36.407 Y69 E17.12082
G1 X37.335 Y68.828 E17.15221
G1 X38.474 Y68.732 E17.19023
G1 X39.106 Y68.718 E17.21126
G1 X93.843 Y68.718 E19.03182
G1 X94.71 Y68.73 E19.06066
G1 X95.646 Y68.786 E19.09184
G1 X96.575 Y68.925 E19.12309
G1 X97.488 Y69.146 E19.15433
G1 X98.344 Y69.434 E19.18437
G1 X99.235 Y69.824 E19.21672
G1 X100.057 Y70.276 E19.24792
G1 X100.808 Y70.778 E19.27796
G1 X101.562 Y71.386 E19.31018
G1 X101.979 Y71.775 E19.32915
G1 X102.651 Y72.437 E19.36052
G1 X104.597 Y74.3 E19.45012
G1 X106.451 Y75.978 E19.5333
G1 X108.38 Y77.625 E19.61766
G1 X110.366 Y79.229 E19.70257
G1 X112.339 Y80.73 E19.78502
G1 X114.422 Y82.224 E19.87028
G1 X116.519 Y83.64 E19.95444
G1 X118.651 Y84.993 E20.03842
G1 X120.803 Y86.276 E20.12175
G1 X123.023 Y87.515 E20.20631
G1 X125.277 Y88.69 E20.29085
G1 X127.546 Y89.793 E20.37477
G1 X129.85 Y90.835 E20.45887
G1 X132.168 Y91.804 E20.54243
G1 X134.562 Y92.726 E20.62776
G1 X136.898 Y93.55 E20.71015
G1 X139.348 Y94.337 E20.79573
G1 X141.752 Y95.037 E20.87901
G1 X144.213 Y95.676 E20.96358
G1 X146.659 Y96.239 E21.04706
G1 X149.19 Y96.747 E21.13292
G1 X151.636 Y97.165 E21.21545
G1 X154.149 Y97.523 E21.29988
G1 X156.634 Y97.805 E21.38306
G1 X159.187 Y98.022 E21.46828
G1 X161.659 Y98.162 E21.55063
G1 X165.644 Y98.247 E21.68321
G1 X167.305 Y98.256 E21.73845
G1 X168.207 Y98.301 E21.76849
G1 X169.171 Y98.436 E21.80086
G1 X170.085 Y98.65 E21.83209
G1 X170.976 Y98.942 E21.86327
G1 X171.84 Y99.313 E21.89455
G1 X172.665 Y99.759 E21.92574
G1 X173.448 Y100.275 E21.95693
G1 X174.183 Y100.859 E21.98815
G1 X174.863 Y101.506 E22.01937
G1 X175.483 Y102.21 E22.05057
G1 X176.039 Y102.966 E22.08178
G1 X176.525 Y103.769 E22.113
G1 X176.939 Y104.612 E22.14424
G1 X177.276 Y105.487 E22.17543
G1 X177.535 Y106.389 E22.20664
G1 X177.708 Y107.275 E22.23666
G1 X177.822 Y108.56 E22.27957
G1 X177.835 Y109.176 E22.30006
G1 X177.834 Y164.001 E24.12355
G1 X177.824 Y164.746 E24.14833
G1 X177.77 Y165.683 E24.17955
G1 X177.632 Y166.612 E24.21079
G1 X177.413 Y167.524 E24.24198
G1 X177.115 Y168.414 E24.2732
G1 X176.738 Y169.274 E24.30443
G1 X176.288 Y170.096 E24.3356
G1 X175.766 Y170.877 E24.36684
G1 X175.177 Y171.607 E24.39804
G1 X174.552 Y172.258 E24.42806
G1 X173.817 Y172.899 E24.46049
G1 X173.057 Y173.449 E24.4917
G1 X172.251 Y173.93 E24.52291
G1 X171.406 Y174.338 E24.55412
G1 X170.528 Y174.669 E24.58533
G1 X169.624 Y174.922 E24.61655
G1 X168.697 Y175.094 E24.64791
G1 X167.546 Y175.192 E24.68633
G1 X166.914 Y175.206 E24.70736
G1 X165.293 Y175.206 E24.76127
G1 X162.698 Y175.243 E24.84759
G1 X160.133 Y175.352 E24.93298
G1 X157.64 Y175.529 E25.01611
G1 X155.119 Y175.778 E25.10036
G1 X152.611 Y176.099 E25.18446
G1 X150.117 Y176.491 E25.26843
G1 X147.652 Y176.949 E25.35182
G1 X145.149 Y177.488 E25.43698
G1 X142.703 Y178.087 E25.52074
G1 X140.27 Y178.756 E25.60466
G1 X137.857 Y179.495 E25.6886
G1 X135.455 Y180.306 E25.77292
G1 X133.063 Y181.188 E25.85771
G1 X130.767 Y182.11 E25.94001
G1 X128.396 Y183.142 E26.02601
G1 X126.1 Y184.218 E26.11035
G1 X123.878 Y185.337 E26.19309
G1 X121.63 Y186.552 E26.27809
G1 X119.462 Y187.802 E26.36132
G1 X117.288 Y189.139 E26.44621
G1 X115.187 Y190.515 E26.52974
G1 X113.099 Y191.969 E26.61437
G1 X111.073 Y193.466 E26.69815
G1 X109.094 Y195.017 E26.78178
G1 X107.116 Y196.659 E26.86728
G1 X105.231 Y198.317 E26.95078
G1 X103.391 Y200.029 E27.03437
G1 X102.522 Y200.887 E27.07499
G1 X101.862 Y201.519 E27.10538
G1 X101.155 Y202.136 E27.13659
G1 X100.397 Y202.689 E27.1678
G1 X99.592 Y203.172 E27.19902
G1 X98.748 Y203.582 E27.23023
G1 X97.871 Y203.916 E27.26144
G1 X96.968 Y204.171 E27.29265
G1 X96.081 Y204.34 E27.32268
G1 X94.863 Y204.448 E27.36335
G1 X94.215 Y204.463 E27.38491
G1 X39.355 Y204.462 E29.20956
G1 X38.639 Y204.452 E29.23338
G1 X37.703 Y204.398 E29.26456
G1 X36.774 Y204.259 E29.29581
G1 X35.862 Y204.04 E29.327
G1 X34.972 Y203.741 E29.35823
G1 X34.113 Y203.364 E29.38943
G1 X33.29 Y202.913 E29.42064
G1 X32.51 Y202.391 E29.45186
G1 X31.806 Y201.825 E29.4819
G1 X31.104 Y201.15 E29.5143
G1 X30.489 Y200.441 E29.54551
G1 X29.959 Y199.71 E29.57554
G1 X29.459 Y198.874 E29.60794
G1 X29.051 Y198.029 E29.63915
G1 X28.72 Y197.151 E29.67036
G1 X28.468 Y196.247 E29.70157
G1 X28.296 Y195.318 E29.733
G1 X28.198 Y194.139 E29.77235
G1 X28.185 Y193.521 E29.79291
G1 X28.186 Y79.849 E33.57365
G1 X28.196 Y79.166 E33.59637
G1 X28.251 Y78.229 E33.62759
G1 X28.39 Y77.301 E33.6588
G1 X28.61 Y76.389 E33.69
G1 X28.91 Y75.499 E33.72124
G1 X29.287 Y74.64 E33.75244
G1 X29.738 Y73.818 E33.78363
G1 X30.261 Y73.038 E33.81486
G1 X30.828 Y72.334 E33.84493
G1 X31.503 Y71.633 E33.87729
G1 X32.212 Y71.018 E33.90851
G1 X32.944 Y70.488 E33.93857
G1 X33.78 Y69.989 E33.97095
G0 F6000 X33.954 Y70.349
G1 F1200 X34.767 Y69.956 E34.00099
G1 X35.612 Y69.636 E34.03104
G1 X36.481 Y69.393 E34.06105
G1 X37.369 Y69.227 E34.0911
G1 X38.508 Y69.131 E34.12911
G1 X39.115 Y69.118 E34.14931
G1 X93.838 Y69.118 E35.9694
G1 X94.687 Y69.129 E35.99764
G1 X95.588 Y69.182 E36.02766
G1 X96.482 Y69.314 E36.05772
G1 X97.36 Y69.525 E36.08775
G1 X98.216 Y69.813 E36.11779
G1 X99.043 Y70.175 E36.14782
G1 X99.835 Y70.609 E36.17785
G1 X100.586 Y71.111 E36.2079
G1 X101.289 Y71.678 E36.23794
G1 X101.698 Y72.06 E36.25655
G1 X102.374 Y72.726 E36.28811
G1 X104.32 Y74.589 E36.37772
G1 X106.191 Y76.282 E36.46164
G1 X108.12 Y77.929 E36.54601
G1 X110.124 Y79.547 E36.63167
G1 X112.106 Y81.055 E36.7145
G1 X114.189 Y82.549 E36.79976
G1 X116.305 Y83.978 E36.88469
G1 X118.446 Y85.337 E36.96903
G1 X120.598 Y86.62 E37.05236
G1 X122.838 Y87.87 E37.13768
G1 X125.102 Y89.05 E37.2226
G1 X127.381 Y90.158 E37.30688
G1 X129.685 Y91.199 E37.39097
G1 X132.024 Y92.177 E37.47529
G1 X134.422 Y93.1 E37.56075
G1 X136.776 Y93.931 E37.64378
G1 X139.229 Y94.719 E37.72948
G1 X141.645 Y95.422 E37.81317
G1 X144.123 Y96.066 E37.89832
G1 X146.569 Y96.629 E37.9818
G1 X149.109 Y97.139 E38.06797
G1 X151.58 Y97.561 E38.15135
G1 X154.093 Y97.919 E38.23577
G1 X156.6 Y98.204 E38.31969
G1 X159.153 Y98.42 E38.40491
G1 X161.65 Y98.562 E38.48809
G1 X165.635 Y98.647 E38.62067
G1 X167.285 Y98.656 E38.67555
G1 X168.187 Y98.701 E38.70558
G1 X169.081 Y98.826 E38.73561
G1 X169.961 Y99.03 E38.76565
G1 X170.819 Y99.31 E38.79567
G1 X171.65 Y99.665 E38.82573
G1 X172.445 Y100.093 E38.85576
G1 X173.2 Y100.589 E38.8858
G1 X173.908 Y101.149 E38.91583
G1 X174.563 Y101.771 E38.94587
G1 X175.161 Y102.447 E38.97589
G1 X175.697 Y103.174 E39.00593
G1 X176.166 Y103.946 E39.03597
G1 X176.566 Y104.756 E39.06602
G1 X176.892 Y105.598 E39.09605
G1 X177.142 Y106.466 E39.12609
G1 X177.315 Y107.352 E39.15612
G1 X177.422 Y108.569 E39.19675
G1 X177.435 Y109.176 E39.21695
G1 X177.434 Y163.996 E41.04027
G1 X177.425 Y164.723 E41.06445
G1 X177.374 Y165.625 E41.0945
G1 X177.243 Y166.519 E41.12455
G1 X177.034 Y167.397 E41.15457
G1 X176.748 Y168.254 E41.18462
G1 X176.387 Y169.082 E41.21466
G1 X175.955 Y169.874 E41.24467
G1 X175.454 Y170.626 E41.27472
G1 X174.888 Y171.33 E41.30476
G1 X174.263 Y171.981 E41.33478
G1 X173.582 Y172.575 E41.36484
G1 X172.851 Y173.106 E41.39489
G1 X172.077 Y173.57 E41.4249
G1 X171.264 Y173.964 E41.45495
G1 X170.42 Y174.284 E41.48497
G1 X169.55 Y174.529 E41.51503
G1 X168.663 Y174.695 E41.54505
G1 X167.512 Y174.793 E41.58347
G1 X166.905 Y174.806 E41.60366
G1 X165.287 Y174.806 E41.65748
G1 X162.681 Y174.843 E41.74416
G1 X160.116 Y174.952 E41.82955
G1 X157.609 Y175.13 E41.91314
G1 X155.068 Y175.381 E41.99807
G1 X152.56 Y175.702 E42.08217
G1 X150.055 Y176.096 E42.16651
G1 X147.568 Y176.558 E42.25064
G1 X145.054 Y177.099 E42.33617
G1 X142.608 Y177.698 E42.41993
G1 X140.164 Y178.371 E42.50424
G1 X137.729 Y179.116 E42.58894
G1 X135.327 Y179.927 E42.67326
G1 X132.914 Y180.817 E42.7588
G1 X130.607 Y181.743 E42.84148
G1 X128.236 Y182.775 E42.92749
G1 X125.93 Y183.856 E43.01219
G1 X123.688 Y184.985 E43.09568
G1 X121.43 Y186.205 E43.18105
G1 X119.262 Y187.455 E43.26428
G1 X117.078 Y188.798 E43.34956
G1 X114.968 Y190.18 E43.43345
G1 X112.861 Y191.647 E43.51884
G1 X110.835 Y193.144 E43.60263
G1 X108.838 Y194.709 E43.68701
G1 X106.86 Y196.352 E43.77254
G1 X104.967 Y198.017 E43.85639
G1 X103.11 Y199.744 E43.94073
G1 X102.245 Y200.598 E43.98116
G1 X101.598 Y201.218 E44.01097
G1 X100.919 Y201.813 E44.04099
G1 X100.19 Y202.346 E44.07103
G1 X99.417 Y202.812 E44.10105
G1 X98.605 Y203.208 E44.1311
G1 X97.762 Y203.531 E44.16112
G1 X96.893 Y203.778 E44.19117
G1 X96.006 Y203.947 E44.2212
G1 X94.854 Y204.048 E44.25967
G1 X94.215 Y204.063 E44.28093
G1 X39.36 Y204.062 E46.10541
G1 X38.662 Y204.053 E46.12863
G1 X37.761 Y204.002 E46.15864
G1 X36.867 Y203.87 E46.1887
G1 X35.989 Y203.661 E46.21872
G1 X35.132 Y203.374 E46.24878
G1 X34.305 Y203.013 E46.27879
G1 X33.512 Y202.58 E46.30884
G1 X32.761 Y202.079 E46.33887
G1 X32.057 Y201.513 E46.36891
G1 X31.406 Y200.887 E46.39895
G1 X30.813 Y200.206 E46.42899
G1 X30.283 Y199.475 E46.45902
G1 X29.819 Y198.7 E46.48906
G1 X29.425 Y197.887 E46.51911
G1 X29.105 Y197.043 E46.54913
G1 X28.861 Y196.173 E46.57918
G1 X28.695 Y195.285 E46.60923
G1 X28.598 Y194.13 E46.64778
G1 X28.585 Y193.521 E46.66804
G1 X28.586 Y79.854 E50.44862
G1 X28.595 Y79.189 E50.47074
G1 X28.647 Y78.287 E50.50079
G1 X28.779 Y77.394 E50.53081
G1 X28.989 Y76.516 E50.56084
G1 X29.276 Y75.659 E50.5909
G1 X29.638 Y74.832 E50.62093
G1 X30.071 Y74.04 E50.65095
G1 X30.573 Y73.289 E50.68099
G1 X31.14 Y72.585 E50.71106
G1 X31.766 Y71.935 E50.74107
G1 X32.447 Y71.342 E50.77111
G1 X33.179 Y70.812 E50.80117
G1 X33.954 Y70.349 E50.83119
G1 F2700 E45.83119
;MESH:SC-FREYR-MGSE-700-0008-Front_Cap.stl
G0 F6000 X39.585 Y78.653
G0 X93.945 Y193.263
;TYPE:WALL-INNER
G1 F2700 E50.83119
G1 F1200 X93.945 Y79.918 E54.60106
G1 X39.385 Y79.918 E56.41573
G1 X39.385 Y193.263 E60.1856
G1 X93.945 Y193.263 E62.00028
G0 F6000 X94.345 Y193.663
;TYPE:WALL-OUTER
G1 F1200 X94.345 Y79.518 E65.79676
G1 X38.985 Y79.518 E67.63804
G1 X38.985 Y193.663 E71.43451
G1 X94.345 Y193.663 E73.2758
G0 F6000 X94.075 Y193.393
G0 X93.845 Y192.903
G0 X93.585 Y192.903
;TYPE:SKIN
G1 F1200 X39.745 Y192.903 E75.06652
G1 X39.745 Y80.278 E78.81244
G1 X93.585 Y80.278 E80.60317
G1 X93.585 Y192.903 E84.34909
G1 F2700 E79.34909
G0 F6000 X93.845 Y192.903
G0 X40.532 Y193.163
G0 X40.532 Y192.702
G1 F2700 E84.34909
G1 F1200 X39.944 Y192.113 E84.37677
G0 F6000 X39.944 Y191.548
G1 F1200 X41.098 Y192.702 E84.43105
G0 F6000 X41.664 Y192.702
G1 F1200 X39.944 Y190.982 E84.51196
G0 F6000 X39.944 Y190.416
G1 F1200 X42.229 Y192.702 E84.61946
G0 F6000 X42.795 Y192.702
G1 F1200 X39.944 Y189.851 E84.75356
